X: 21502
T: HAY MAKER
C:
%R: jig
B: Elias Howe "The Musician's Companion" 1843 p.150 #2
S: http://imslp.org/wiki/The_Musician's_Companion_(Howe,_Elias)
Z: 2015 John Chambers <jc:trillian.mit.edu>
M: 6/8
L: 1/8
K: G
% - - - - - - - - - - - - - - - - - - - - - - - - -
V: 1
|:\
GAB ABc | BAG AFD | GAB ABc | BdB G2z :|\
B2d g2d | ege dBG | B2d g2d | ege d2z :|\
B2e dBG | ABA dBG | B2e dBG | ABA G2z :|
% - - - - - - - - - - - - - - - - - - - - - - - - -

%%sep 1 1 500

